public/assets/icons/profile.svg

<svg width="51" height="51" viewBox="0 0 51 51" fill="none" xmlns="http://www.w3.org/2000/svg">
<path d="M25.4065 30.2491C19.8388 30.2491 15.3093 25.7197 15.3093 20.1519C15.3093 14.5841 19.8388 10.0547 25.4065 10.0547C30.9738 10.0547 35.5038 14.5841 35.5038 20.1519C35.5038 25.7197 30.9738 30.2491 25.4065 30.2491Z" fill="#131118"/>
<path d="M25.4065 0.40625C11.6215 0.40625 0.406494 11.6213 0.406494 25.4063C0.406494 39.1913 11.6215 50.4063 25.4065 50.4063C39.1915 50.4063 50.4065 39.1913 50.4065 25.4063C50.4065 11.6213 39.1915 0.40625 25.4065 0.40625ZM41.9737 39.3485C40.0054 36.4301 37.2754 34.0329 34.1076 32.4968C32.8515 31.8879 31.3848 31.8968 30.0815 32.5229C28.6159 33.2274 27.0426 33.584 25.4065 33.584C23.7704 33.584 22.1976 33.2268 20.7315 32.5229C19.4298 31.8979 17.9626 31.8879 16.7054 32.4968C13.5376 34.0329 10.8076 36.4301 8.83872 39.3485C5.66038 35.5774 3.73983 30.7129 3.73983 25.4063C3.73983 13.459 13.4593 3.73958 25.4065 3.73958C37.3537 3.73958 47.0732 13.459 47.0732 25.4063C47.0732 30.7129 45.1526 35.5774 41.9737 39.3485Z" fill="#131118"/>
</svg>

<?xml version="1.0" encoding="utf-8"?>
<!-- Generator: Adobe Illustrator 28.1.0, SVG Export Plug-In . SVG Version: 6.00 Build 0)  -->
<svg version="1.1" id="Layer_1" xmlns="http://www.w3.org/2000/svg" xmlns:xlink="http://www.w3.org/1999/xlink" x="0px" y="0px"
	 viewBox="0 0 51 51" style="enable-background:new 0 0 51 51;" xml:space="preserve">
<style type="text/css">
	.st0{fill:#FFFFFF;}
</style>
<path class="st0" d="M25.4,30.2c-5.6,0-10.1-4.5-10.1-10.1s4.5-10.1,10.1-10.1c5.6,0,10.1,4.5,10.1,10.1S31,30.2,25.4,30.2z"/>
<path class="st0" d="M25.4,0.4c-13.8,0-25,11.2-25,25s11.2,25,25,25s25-11.2,25-25S39.2,0.4,25.4,0.4z M42,39.3
	c-2-2.9-4.7-5.3-7.9-6.9c-1.3-0.6-2.7-0.6-4,0c-1.5,0.7-3,1.1-4.7,1.1s-3.2-0.4-4.7-1.1c-1.3-0.6-2.8-0.6-4,0
	c-3.2,1.5-5.9,3.9-7.9,6.9c-3.2-3.8-5.1-8.6-5.1-13.9c0-11.9,9.7-21.7,21.7-21.7s21.7,9.7,21.7,21.7C47.1,30.7,45.2,35.6,42,39.3z"
	/>
</svg>
